img/menu/m-icons-cat9.svg

<svg width="24" height="24" viewBox="0 0 24 24" fill="none" xmlns="http://www.w3.org/2000/svg">
<path d="M5.5 5C4.67157 5 4 5.67157 4 6.5V8H3V9H4V15H3V16H4V17.5C4 18.3284 4.67157 19 5.5 19C6.32843 19 7 18.3284 7 17.5V6.5C7 5.67157 6.32843 5 5.5 5Z" fill="#034899"/>
<path d="M9.5 5C8.67157 5 8 5.67157 8 6.5V17.5C8 18.3284 8.67157 19 9.5 19C10.3284 19 11 18.3284 11 17.5V6.5C11 5.67157 10.3284 5 9.5 5Z" fill="#034899"/>
<path d="M12 6.5C12 5.67157 12.6716 5 13.5 5C14.3284 5 15 5.67157 15 6.5V17.5C15 18.3284 14.3284 19 13.5 19C12.6716 19 12 18.3284 12 17.5V6.5Z" fill="#034899"/>
<path d="M17.5 5C16.6716 5 16 5.67157 16 6.5V17.5C16 18.3284 16.6716 19 17.5 19C18.3284 19 19 18.3284 19 17.5V9H20V10H21V7H20V8H19V6.5C19 5.67157 18.3284 5 17.5 5Z" fill="#034899"/>
</svg>

<svg width="24" height="24" fill="none" xmlns="http://www.w3.org/2000/svg"><path d="M5.5 5A1.5 1.5 0 0 0 4 6.5V8H3v1h1v6H3v1h1v1.5a1.5 1.5 0 0 0 3 0v-11A1.5 1.5 0 0 0 5.5 5zm4 0A1.5 1.5 0 0 0 8 6.5v11a1.5 1.5 0 0 0 3 0v-11A1.5 1.5 0 0 0 9.5 5zM12 6.5a1.5 1.5 0 0 1 3 0v11a1.5 1.5 0 0 1-3 0v-11zM17.5 5A1.5 1.5 0 0 0 16 6.5v11a1.5 1.5 0 0 0 3 0V9h1v1h1V7h-1v1h-1V6.5A1.5 1.5 0 0 0 17.5 5z" fill="#034899"/></svg>
